talent/images/icons/buble.svg

<svg width="18" height="18" viewBox="0 0 18 18" fill="none" xmlns="http://www.w3.org/2000/svg">
<path fill-rule="evenodd" clip-rule="evenodd" d="M9 0C4.03737 0 0 4.03737 0 9C0 13.9626 4.03737 18 9 18C13.9626 18 18 13.9626 18 9C18 4.03742 13.9626 0 9 0ZM15.6922 13.2602C14.7888 12.8289 13.651 12.4999 12.3706 12.2912C12.5089 11.4213 12.5916 10.4914 12.614 9.53226H16.9172C16.8264 10.8974 16.3891 12.1693 15.6922 13.2602ZM7.31463 14.6295C7.79985 15.9219 8.4299 16.6935 9 16.6935C9.5701 16.6935 10.2001 15.9219 10.6854 14.6295C10.8492 14.1932 10.9913 13.7138 11.1107 13.2009C10.4313 13.1314 9.72198 13.095 9 13.095C8.27802 13.095 7.56871 13.1314 6.88926 13.2009C7.00873 13.7138 7.15084 14.1932 7.31463 14.6295ZM9 12.0304C8.20263 12.0304 7.42573 12.0714 6.68415 12.15C6.55229 11.3285 6.47298 10.446 6.45073 9.53221H11.5493C11.5271 10.446 11.4478 11.3285 11.3159 12.15C10.5743 12.0714 9.79737 12.0304 9 12.0304ZM5.38597 9.53226H1.08276C1.17363 10.8974 1.61085 12.1693 2.30777 13.2602C3.21116 12.8288 4.34898 12.4998 5.62935 12.2912C5.49106 11.4213 5.40837 10.4913 5.38597 9.53226ZM2.30777 4.73981C3.21116 5.17118 4.34903 5.50016 5.62935 5.70881C5.49106 6.57871 5.40837 7.50866 5.38597 8.46774H1.08276C1.17363 7.1026 1.61085 5.83074 2.30777 4.73981ZM10.6854 3.37055C10.2001 2.07808 9.5701 1.30645 9 1.30645C8.4299 1.30645 7.79985 2.07808 7.31458 3.37055C7.15079 3.80681 7.00868 4.28623 6.88921 4.79913C7.56866 4.86861 8.27797 4.90505 8.99995 4.90505C9.72194 4.90505 10.4312 4.86861 11.1107 4.79913C10.9913 4.28623 10.8492 3.80681 10.6854 3.37055ZM9 5.96961C9.79737 5.96961 10.5743 5.92863 11.3159 5.85005C11.4477 6.67152 11.527 7.55395 11.5493 8.46779H6.45068C6.47294 7.55395 6.55229 6.67152 6.6841 5.85005C7.42573 5.92858 8.20263 5.96961 9 5.96961ZM12.3706 5.70876C12.5089 6.57871 12.5916 7.50866 12.614 8.46774H16.9172C16.8264 7.1026 16.3891 5.83069 15.6922 4.73976C14.7888 5.17113 13.651 5.50011 12.3706 5.70876ZM15.0453 3.86555C14.2604 4.21142 13.2731 4.48171 12.1704 4.65997C12.0358 4.06215 11.8724 3.50352 11.682 2.99642C11.4154 2.28639 11.1031 1.70424 10.7565 1.26077C12.4572 1.64656 13.9519 2.58019 15.0453 3.86555ZM6.31805 2.99642C6.58461 2.28639 6.8969 1.70424 7.24355 1.26077C5.54284 1.64656 4.04806 2.58019 2.95471 3.86555C3.73955 4.21142 4.72694 4.48176 5.82958 4.65997C5.96424 4.06215 6.12765 3.50352 6.31805 2.99642ZM2.95466 14.1345C3.73955 13.7886 4.72689 13.5182 5.82953 13.34C5.96419 13.9378 6.1276 14.4965 6.318 15.0036C6.58456 15.7136 6.89685 16.2958 7.2435 16.7392C5.54284 16.3534 4.04806 15.4198 2.95466 14.1345ZM11.682 15.0036C11.4154 15.7136 11.1031 16.2958 10.7565 16.7392C12.4572 16.3534 13.9519 15.4198 15.0453 14.1345C14.2604 13.7886 13.2731 13.5183 12.1704 13.34C12.0358 13.9379 11.8724 14.4965 11.682 15.0036Z" fill="white"/>
</svg>

<svg width="18" height="18" fill="none" xmlns="http://www.w3.org/2000/svg"><path fill-rule="evenodd" clip-rule="evenodd" d="M9 0C4.037 0 0 4.037 0 9s4.037 9 9 9 9-4.037 9-9-4.037-9-9-9zm6.692 13.26c-.903-.431-2.041-.76-3.321-.969.138-.87.22-1.8.243-2.759h4.303a7.883 7.883 0 01-1.225 3.728zm-8.377 1.37C7.8 15.921 8.43 16.692 9 16.692c.57 0 1.2-.771 1.685-2.064a11.5 11.5 0 00.426-1.428c-.68-.07-1.389-.106-2.111-.106-.722 0-1.431.036-2.11.106.119.513.26.992.425 1.428zM9 12.03c-.797 0-1.574.041-2.316.12a19.628 19.628 0 01-.233-2.618h5.098a19.613 19.613 0 01-.233 2.618A22.038 22.038 0 009 12.03zM5.386 9.532H1.083a7.883 7.883 0 001.225 3.728c.903-.431 2.041-.76 3.321-.969-.138-.87-.22-1.8-.243-2.759zM2.308 4.74c.903.431 2.041.76 3.321.969-.138.87-.22 1.8-.243 2.759H1.083A7.883 7.883 0 012.308 4.74zm8.377-1.37C10.2 2.079 9.57 1.307 9 1.307c-.57 0-1.2.772-1.685 2.065A11.51 11.51 0 006.889 4.8c.68.07 1.389.106 2.111.106.722 0 1.431-.036 2.11-.106-.119-.513-.26-.992-.425-1.428zM9 5.97c.797 0 1.574-.041 2.316-.12.132.822.211 1.704.233 2.618H6.451c.022-.914.101-1.796.233-2.618.742.079 1.519.12 2.316.12zm3.37-.261c.139.87.222 1.8.244 2.759h4.303a7.883 7.883 0 00-1.225-3.728c-.903.431-2.041.76-3.321.969zm2.675-1.843c-.785.345-1.772.616-2.875.794a12.67 12.67 0 00-.488-1.664c-.267-.71-.579-1.292-.925-1.735a7.944 7.944 0 014.288 2.605zm-8.727-.87c.267-.71.579-1.292.926-1.735a7.944 7.944 0 00-4.29 2.605c.786.345 1.773.616 2.876.794a12.68 12.68 0 01.488-1.664zM2.955 14.134c.785-.345 1.772-.616 2.875-.794.134.598.298 1.156.488 1.664.267.71.579 1.292.926 1.735a7.945 7.945 0 01-4.29-2.605zm8.727.87c-.267.71-.579 1.292-.925 1.735a7.945 7.945 0 004.288-2.605c-.785-.345-1.772-.616-2.875-.794a12.668 12.668 0 01-.488 1.664z" fill="#fff"/></svg>
